X:1
T:Famous Eagle, 87.87 D
T:Famous Eagle, 87.87 D
T:William James Kirkpatrick, 1900
T:Public Domain Courtesy of the Cyber Hymnal™
C:William James Kirkpatrick, 1900
Z:Public Domain
Z:Courtesy of the Cyber Hymnal™
%%score ( 1 2 ) ( 3 4 )
L:1/8
Q:1/4=103
M:4/4
K:Eb
V:1 treble 
V:2 treble 
V:3 bass 
V:4 bass 
V:1
 [EG]3 [EA] [EG]2 E2 | [GB]3 [Ac] [GB]2 [EG]2 | [Ge]3 [GB] [Bd][Ac][GB][FA] | [EG]4 [DF]2 z2 | %4
 [EG]3 [EA] [EG]2 E2 | [GB]3 [Ac] [GB]2 [EG]2 | [Ge]3 [GB] ([Bd][Ac]) ([GB][FA]) | [EG]2 [DF]2 E4 | %8
 [DF]3 [EG] [FA]2 [DF]2 | [EG]3 [FA] [GB]2 [EG]2 | [Ge]3 [Ge] [Fd][Fc][FB][E=A] | B6 z2 | %12
 [EB]3 [Ec] [EB]2 [EG]2 | [Ee]3 [EB] [Ec]2 [Ee]2 |"^Rit. ad lib." [EB]3 E [B,D]2 [B,E]2 | %15
 G3 z F E4 |] %16
V:2
 x6 E2 | x8 | x8 | x8 | x6 E2 | x8 | x8 | x4 E4 | x8 | x8 | x8 | (D3 E F2) x2 | x8 | x8 | x3 E x4 | %15
 E2 D2 E4 x |] %16
V:3
 [E,B,]3 [E,C] [E,B,]2 [E,G,]2 | [E,E]3 [E,E] [E,E]2 [E,B,]2 | [E,B,]3 [E,E] [A,E][A,E][A,C][A,C] | %3
 B,6 z2 | [E,B,]3 [E,C] [E,B,]2 [E,G,]2 | [E,E]3 [E,E] [E,E]2 [E,B,]2 | %6
 [E,B,]3 [E,E] [A,,E]2 [A,,C]2 | [B,,B,]2 [B,,A,]2 [E,G,]4 | [B,,B,]3 [B,,B,] [B,,B,]2 [B,,B,]2 | %9
 [E,B,]3 [E,B,] [E,E]2 [E,B,]2 | [E,B,]3 [E,B,] [F,B,][F,E][F,D][F,C] | (B,2 F,G, A,2) z2 | %12
 [E,G,]3 [E,A,] [E,G,]2 [E,B,]2 | [G,B,]3 [G,B,] A,2 [A,C]2 | [G,B,]3 [G,B,] [F,A,]2 [E,G,]2 | %15
 [B,,B,]3 [B,,A,] [E,G,]4 x |] %16
V:4
 x8 | x8 | x8 | B,6 x2 | x8 | x8 | x8 | x8 | x8 | x8 | x8 | B,,6 x2 | x8 | x4 A,2 x2 | x8 | x9 |] %16

